src/img/event_icons/convos.svg

<svg fill="none" height="15" viewBox="0 0 18 15" width="18" xmlns="http://www.w3.org/2000/svg"><path d="m11.625 5.5625c0-2.65234-2.57031-4.8125-5.6875-4.8125-3.14453 0-5.6875 2.16016-5.6875 4.8125 0 1.09375.410156 2.07812 1.12109 2.89844-.437496.90234-1.066402 1.55856-1.066402 1.58596-.082032.0547-.082032.1367-.054688.2187.027344.0821.109375.1094.191406.1094 1.066404 0 1.941404-.3008 2.625004-.65625.84765.43745 1.80468.65625 2.87109.65625 3.11719 0 5.6875-2.13281 5.6875-4.8125zm5.0039 7.3281c.6836-.8203 1.1211-1.832 1.1211-2.9531 0-2.65234-2.3516-4.8125-5.25-4.8125-.0273 0-.0273.02734-.0273.02734 0 .13672.0273.27344.0273.41016 0 2.70703-2.1875 4.9766-5.11328 5.5508.57422 2.1055 2.62498 3.6367 5.11328 3.6367.9023 0 1.7773-.2188 2.5156-.5742.6836.3008 1.5313.5742 2.5156.5742.0821 0 .1641-.0273.1915-.1094.0273-.082 0-.164-.0547-.2187 0-.0274-.6016-.6563-1.0391-1.5313z" fill="#000"/></svg>

<svg width="18" height="15" viewBox="0 0 18 15" fill="none" xmlns="http://www.w3.org/2000/svg">
<path d="M11.625 5.5625C11.625 2.91016 9.05469 0.75 5.9375 0.75C2.79297 0.75 0.25 2.91016 0.25 5.5625C0.25 6.65625 0.660156 7.64062 1.37109 8.46094C0.933594 9.36328 0.304688 10.0195 0.304688 10.0469C0.222656 10.1016 0.222656 10.1836 0.25 10.2656C0.277344 10.3477 0.359375 10.375 0.441406 10.375C1.50781 10.375 2.38281 10.0742 3.06641 9.71875C3.91406 10.1562 4.87109 10.375 5.9375 10.375C9.05469 10.375 11.625 8.24219 11.625 5.5625ZM16.6289 12.8906C17.3125 12.0703 17.75 11.0586 17.75 9.9375C17.75 7.28516 15.3984 5.125 12.5 5.125C12.4727 5.125 12.4727 5.15234 12.4727 5.15234C12.4727 5.28906 12.5 5.42578 12.5 5.5625C12.5 8.26953 10.3125 10.5391 7.38672 11.1133C7.96094 13.2188 10.0117 14.75 12.5 14.75C13.4023 14.75 14.2773 14.5312 15.0156 14.1758C15.6992 14.4766 16.5469 14.75 17.5312 14.75C17.6133 14.75 17.6953 14.7227 17.7227 14.6406C17.75 14.5586 17.7227 14.4766 17.668 14.4219C17.668 14.3945 17.0664 13.7656 16.6289 12.8906Z" fill="black"/>
</svg>
